assets/web/icons/info.svg

<svg width="24" height="24" viewBox="0 0 24 24" fill="none" xmlns="http://www.w3.org/2000/svg">
<path d="M12 17C12.2833 17 12.5208 16.9042 12.7125 16.7125C12.9042 16.5208 13 16.2833 13 16V12C13 11.7167 12.9042 11.4792 12.7125 11.2875C12.5208 11.0958 12.2833 11 12 11C11.7167 11 11.4792 11.0958 11.2875 11.2875C11.0958 11.4792 11 11.7167 11 12V16C11 16.2833 11.0958 16.5208 11.2875 16.7125C11.4792 16.9042 11.7167 17 12 17ZM12 9C12.2833 9 12.5208 8.90417 12.7125 8.7125C12.9042 8.52083 13 8.28333 13 8C13 7.71667 12.9042 7.47917 12.7125 7.2875C12.5208 7.09583 12.2833 7 12 7C11.7167 7 11.4792 7.09583 11.2875 7.2875C11.0958 7.47917 11 7.71667 11 8C11 8.28333 11.0958 8.52083 11.2875 8.7125C11.4792 8.90417 11.7167 9 12 9ZM12 22C10.6167 22 9.31667 21.7375 8.1 21.2125C6.88333 20.6875 5.825 19.975 4.925 19.075C4.025 18.175 3.3125 17.1167 2.7875 15.9C2.2625 14.6833 2 13.3833 2 12C2 10.6167 2.2625 9.31667 2.7875 8.1C3.3125 6.88333 4.025 5.825 4.925 4.925C5.825 4.025 6.88333 3.3125 8.1 2.7875C9.31667 2.2625 10.6167 2 12 2C13.3833 2 14.6833 2.2625 15.9 2.7875C17.1167 3.3125 18.175 4.025 19.075 4.925C19.975 5.825 20.6875 6.88333 21.2125 8.1C21.7375 9.31667 22 10.6167 22 12C22 13.3833 21.7375 14.6833 21.2125 15.9C20.6875 17.1167 19.975 18.175 19.075 19.075C18.175 19.975 17.1167 20.6875 15.9 21.2125C14.6833 21.7375 13.3833 22 12 22Z" fill="currentColor"/>
</svg>

<svg xmlns="http://www.w3.org/2000/svg" width="24" height="24" fill="currentColor" viewBox="0 0 24 24">
  <path fill="currentColor" d="M12 17a.97.97 0 0 0 .713-.288A.968.968 0 0 0 13 16v-4a.968.968 0 0 0-.287-.713A.968.968 0 0 0 12 11a.968.968 0 0 0-.713.287A.968.968 0 0 0 11 12v4c0 .283.096.52.287.712.192.192.43.288.713.288Zm0-8c.283 0 .52-.096.713-.287A.967.967 0 0 0 13 8a.967.967 0 0 0-.287-.713A.968.968 0 0 0 12 7a.968.968 0 0 0-.713.287A.967.967 0 0 0 11 8c0 .283.096.52.287.713.192.191.43.287.713.287Zm0 13a9.738 9.738 0 0 1-3.9-.788 10.099 10.099 0 0 1-3.175-2.137c-.9-.9-1.612-1.958-2.137-3.175A9.738 9.738 0 0 1 2 12a9.74 9.74 0 0 1 .788-3.9 10.099 10.099 0 0 1 2.137-3.175c.9-.9 1.958-1.612 3.175-2.137A9.738 9.738 0 0 1 12 2a9.74 9.74 0 0 1 3.9.788 10.098 10.098 0 0 1 3.175 2.137c.9.9 1.613 1.958 2.137 3.175A9.738 9.738 0 0 1 22 12a9.738 9.738 0 0 1-.788 3.9 10.098 10.098 0 0 1-2.137 3.175c-.9.9-1.958 1.613-3.175 2.137A9.738 9.738 0 0 1 12 22Z"/>
</svg>
